X: 1
T: Garster's Dream
M: 6/8
L: 1/8
R: jig
K: Gmaj
|:G2 B BGB|cdc BAG|FGA ABA|AdB AFD|
G2 B BGB|cdc BAG|F2 E DEF|1 G3 G2 D:|2 G3 G2 d||
|:gag gdB|ABA AGE|gag gdB|ded def|
gag gdB|AcB AGE|G2 E DEF|1 G3 G2 d:|2 G3 G3||
